icons/svgs/chevron-circle-up-solid.svg

<svg width="24" height="24" viewBox="0 0 24 24" fill="none" xmlns="http://www.w3.org/2000/svg">
<path d="M12 22C8.40625 22 5.125 20.125 3.32812 17C1.53125 13.9141 1.53125 10.125 3.32812 7C5.125 3.91406 8.40625 2 12 2C15.5547 2 18.8359 3.91406 20.6328 7C22.4297 10.125 22.4297 13.9141 20.6328 17C18.8359 20.125 15.5547 22 12 22ZM16.7266 12.5859L12.625 8.52344C12.2734 8.17188 11.6875 8.17188 11.3359 8.52344L7.27344 12.5859C6.88281 12.9766 6.88281 13.5625 7.27344 13.9141C7.625 14.3047 8.21094 14.3047 8.60156 13.9141L12 10.5156L15.3984 13.9141C15.75 14.3047 16.3359 14.3047 16.7266 13.9141C17.0781 13.5625 17.0781 12.9766 16.7266 12.5859Z" fill="black"/>
</svg>

<svg xmlns="http://www.w3.org/2000/svg" width="24" height="24" fill="currentColor" class="icon-chevron-circle-up-solid" viewBox="0 0 24 24">
  <mask id="a" width="21" height="20" x="1" y="2" maskUnits="userSpaceOnUse" style="mask-type:alpha">
    <path d="M12 22c-3.594 0-6.875-1.875-8.672-5-1.797-3.086-1.797-6.875 0-10C5.125 3.914 8.406 2 12 2c3.555 0 6.836 1.914 8.633 5 1.797 3.125 1.797 6.914 0 10A9.93 9.93 0 0 1 12 22m4.727-9.414-4.102-4.063a.92.92 0 0 0-1.29 0l-4.062 4.063c-.39.39-.39.976 0 1.328.352.39.938.39 1.329 0L12 10.516l3.398 3.398c.352.39.938.39 1.329 0 .351-.351.351-.937 0-1.328"/>
  </mask>
  <g mask="url(#a)">
    <path d="M0 0h24v24H0z"/>
  </g>
</svg>
